6. High pass/src/images/svg/logo.svg

<svg width="191" height="31" viewBox="0 0 191 31" fill="none" xmlns="http://www.w3.org/2000/svg">
<path d="M43 25V3.99999H48.55V11.8H56.65V3.99999H62.2V25H56.65V16.9H48.55V25H43Z" fill="white"/>
<path d="M65.4859 5.19999C65.4859 4.47999 65.7559 3.87999 66.2959 3.39999C66.8359 2.89999 67.5159 2.64999 68.3359 2.64999C69.1559 2.64999 69.8359 2.89999 70.3759 3.39999C70.9159 3.87999 71.1859 4.47999 71.1859 5.19999C71.1859 5.9 70.9159 6.5 70.3759 6.99999C69.8359 7.49999 69.1559 7.74999 68.3359 7.74999C67.5159 7.74999 66.8359 7.49999 66.2959 6.99999C65.7559 6.5 65.4859 5.9 65.4859 5.19999ZM65.7859 25V9.39999H70.8859V25H65.7859Z" fill="white"/>
<path d="M75.4541 22.63C74.1141 21.15 73.4441 19.24 73.4441 16.9C73.4441 14.56 74.1141 12.65 75.4541 11.17C76.7941 9.68999 78.4241 8.94999 80.3441 8.94999C81.7241 8.94999 82.9141 9.34999 83.9141 10.15C84.3741 10.51 84.7341 10.91 84.9941 11.35H85.2941V9.39999H90.3941V30.7H75.5441V26.65H85.2941V22.6H84.9941C84.7141 23.04 84.3541 23.42 83.9141 23.74C82.9341 24.48 81.7441 24.85 80.3441 24.85C78.4241 24.85 76.7941 24.11 75.4541 22.63ZM79.5941 14.26C78.9941 14.9 78.6941 15.78 78.6941 16.9C78.6941 18.02 78.9941 18.9 79.5941 19.54C80.1941 20.18 80.9941 20.5 81.9941 20.5C82.9941 20.5 83.7941 20.18 84.3941 19.54C84.9941 18.9 85.2941 18.02 85.2941 16.9C85.2941 15.78 84.9941 14.9 84.3941 14.26C83.7941 13.62 82.9941 13.3 81.9941 13.3C80.9941 13.3 80.1941 13.62 79.5941 14.26Z" fill="white"/>
<path d="M93.3801 25V3.99999H98.4801V11.5H98.7801C99.0601 11.02 99.4201 10.6 99.8601 10.24C100.88 9.38 102.07 8.94999 103.43 8.94999C105.27 8.94999 106.7 9.50999 107.72 10.63C108.76 11.73 109.28 13.32 109.28 15.4V25H104.18V16.15C104.18 15.25 103.94 14.55 103.46 14.05C102.98 13.55 102.32 13.3 101.48 13.3C100.62 13.3 99.9001 13.62 99.3201 14.26C98.7601 14.88 98.4801 15.71 98.4801 16.75V25H93.3801Z" fill="white"/>
<path d="M120.538 30.7V9.39999H125.638V11.5H125.938C126.218 11.04 126.598 10.62 127.078 10.24C128.178 9.38 129.348 8.94999 130.588 8.94999C132.508 8.94999 134.138 9.71 135.478 11.23C136.818 12.73 137.488 14.72 137.488 17.2C137.488 19.68 136.818 21.68 135.478 23.2C134.138 24.7 132.508 25.45 130.588 25.45C129.328 25.45 128.158 25.03 127.078 24.19C126.598 23.81 126.218 23.38 125.938 22.9H125.638V30.7H120.538ZM126.538 14.32C125.938 15 125.638 15.96 125.638 17.2C125.638 18.44 125.938 19.4 126.538 20.08C127.138 20.76 127.938 21.1 128.938 21.1C129.938 21.1 130.738 20.76 131.338 20.08C131.938 19.4 132.238 18.44 132.238 17.2C132.238 15.96 131.938 15 131.338 14.32C130.738 13.64 129.938 13.3 128.938 13.3C127.938 13.3 127.138 13.64 126.538 14.32Z" fill="white"/>
<path d="M141.284 23.2C139.944 21.68 139.274 19.68 139.274 17.2C139.274 14.72 139.944 12.73 141.284 11.23C142.624 9.71 144.254 8.94999 146.174 8.94999C147.414 8.94999 148.584 9.38 149.684 10.24C150.144 10.62 150.524 11.04 150.824 11.5H151.124V9.39999H156.224V25H151.124V22.9H150.824C150.544 23.38 150.164 23.81 149.684 24.19C148.604 25.03 147.434 25.45 146.174 25.45C144.254 25.45 142.624 24.7 141.284 23.2ZM145.424 14.32C144.824 15 144.524 15.96 144.524 17.2C144.524 18.44 144.824 19.4 145.424 20.08C146.024 20.76 146.824 21.1 147.824 21.1C148.824 21.1 149.624 20.76 150.224 20.08C150.824 19.4 151.124 18.44 151.124 17.2C151.124 15.96 150.824 15 150.224 14.32C149.624 13.64 148.824 13.3 147.824 13.3C146.824 13.3 146.024 13.64 145.424 14.32Z" fill="white"/>
<path d="M158.31 19.9H163.41C163.49 20.2 163.66 20.48 163.92 20.74C164.46 21.28 165.24 21.55 166.26 21.55C167.66 21.55 168.36 21.2 168.36 20.5C168.36 20.18 168.16 19.93 167.76 19.75C167.36 19.55 166.76 19.35 165.96 19.15C165.3 18.99 164.87 18.89 164.67 18.85C164.47 18.81 164.05 18.7 163.41 18.52C162.77 18.32 162.31 18.15 162.03 18.01C161.77 17.85 161.4 17.63 160.92 17.35C160.46 17.05 160.12 16.75 159.9 16.45C159.7 16.13 159.51 15.74 159.33 15.28C159.15 14.8 159.06 14.29 159.06 13.75C159.06 12.43 159.65 11.3 160.83 10.36C162.01 9.41999 163.67 8.94999 165.81 8.94999C168.49 8.94999 170.61 9.82999 172.17 11.59C172.79 12.35 173.22 13.22 173.46 14.2H168.51C168.39 13.88 168.25 13.63 168.09 13.45C167.63 12.95 166.97 12.7 166.11 12.7C164.91 12.7 164.31 13.05 164.31 13.75C164.31 14.09 164.51 14.35 164.91 14.53C165.31 14.71 165.92 14.88 166.74 15.04C168.8 15.52 170.19 15.94 170.91 16.3C172.71 17.18 173.61 18.53 173.61 20.35C173.61 21.79 172.97 23 171.69 23.98C170.43 24.96 168.62 25.45 166.26 25.45C163.36 25.45 161.15 24.53 159.63 22.69C158.95 21.87 158.51 20.94 158.31 19.9Z" fill="white"/>
<path d="M174.951 19.9H180.051C180.131 20.2 180.301 20.48 180.561 20.74C181.101 21.28 181.881 21.55 182.901 21.55C184.301 21.55 185.001 21.2 185.001 20.5C185.001 20.18 184.801 19.93 184.401 19.75C184.001 19.55 183.401 19.35 182.601 19.15C181.941 18.99 181.511 18.89 181.311 18.85C181.111 18.81 180.691 18.7 180.051 18.52C179.411 18.32 178.951 18.15 178.671 18.01C178.411 17.85 178.041 17.63 177.561 17.35C177.101 17.05 176.761 16.75 176.541 16.45C176.341 16.13 176.151 15.74 175.971 15.28C175.791 14.8 175.701 14.29 175.701 13.75C175.701 12.43 176.291 11.3 177.471 10.36C178.651 9.41999 180.311 8.94999 182.451 8.94999C185.131 8.94999 187.251 9.82999 188.811 11.59C189.431 12.35 189.861 13.22 190.101 14.2H185.151C185.031 13.88 184.891 13.63 184.731 13.45C184.271 12.95 183.611 12.7 182.751 12.7C181.551 12.7 180.951 13.05 180.951 13.75C180.951 14.09 181.151 14.35 181.551 14.53C181.951 14.71 182.561 14.88 183.381 15.04C185.441 15.52 186.831 15.94 187.551 16.3C189.351 17.18 190.251 18.53 190.251 20.35C190.251 21.79 189.611 23 188.331 23.98C187.071 24.96 185.261 25.45 182.901 25.45C180.001 25.45 177.791 24.53 176.271 22.69C175.591 21.87 175.151 20.94 174.951 19.9Z" fill="white"/>
<path fill-rule="evenodd" clip-rule="evenodd" d="M6 6V24H24L6 6ZM0 0V30H30V0H0Z" fill="#FF6E30"/>
</svg>

<svg fill="none" height="31" viewBox="0 0 191 31" width="191" xmlns="http://www.w3.org/2000/svg"><g fill="#fff"><path d="m43 25v-21.00001h5.55v7.80001h8.1v-7.80001h5.55v21.00001h-5.55v-8.1h-8.1v8.1z"/><path d="m65.4859 5.19999c0-.72.27-1.32.81-1.8.54-.5 1.22-.75 2.04-.75s1.5.25 2.04.75c.54.48.81 1.08.81 1.8 0 .70001-.27 1.30001-.81 1.8-.54.5-1.22.75-2.04.75s-1.5-.25-2.04-.75c-.54-.49999-.81-1.09999-.81-1.8zm.3 19.80001v-15.60001h5.1v15.60001z"/><path d="m75.4541 22.63c-1.34-1.48-2.01-3.39-2.01-5.73s.67-4.25 2.01-5.73c1.34-1.48001 2.97-2.22001 4.89-2.22001 1.38 0 2.57.4 3.57 1.20001.46.36.82.76 1.08 1.2h.3v-1.95001h5.1v21.30001h-14.85v-4.05h9.75v-4.05h-.3c-.28.44-.64.82-1.08 1.14-.98.74-2.17 1.11-3.57 1.11-1.92 0-3.55-.74-4.89-2.22zm4.14-8.37c-.6.64-.9 1.52-.9 2.64s.3 2 .9 2.64 1.4.96 2.4.96 1.8-.32 2.4-.96.9-1.52.9-2.64-.3-2-.9-2.64-1.4-.96-2.4-.96-1.8.32-2.4.96z"/><path d="m93.3801 25v-21.00001h5.1v7.50001h.3c.28-.48.64-.9 1.08-1.26 1.0199-.86 2.2099-1.29001 3.5699-1.29001 1.84 0 3.27.56 4.29 1.68001 1.04 1.1 1.56 2.69 1.56 4.77v9.6h-5.1v-8.85c0-.9-.24-1.6-.72-2.1s-1.14-.75-1.98-.75c-.86 0-1.5799.32-2.1599.96-.56.62-.84 1.45-.84 2.49v8.25z"/><path d="m120.538 30.7v-21.30001h5.1v2.10001h.3c.28-.46.66-.88 1.14-1.26 1.1-.86 2.27-1.29001 3.51-1.29001 1.92 0 3.55.76001 4.89 2.28001 1.34 1.5 2.01 3.49 2.01 5.97s-.67 4.48-2.01 6c-1.34 1.5-2.97 2.25-4.89 2.25-1.26 0-2.43-.42-3.51-1.26-.48-.38-.86-.81-1.14-1.29h-.3v7.8zm6-16.38c-.6.68-.9 1.64-.9 2.88s.3 2.2.9 2.88 1.4 1.02 2.4 1.02 1.8-.34 2.4-1.02.9-1.64.9-2.88-.3-2.2-.9-2.88-1.4-1.02-2.4-1.02-1.8.34-2.4 1.02z"/><path d="m141.284 23.2c-1.34-1.52-2.01-3.52-2.01-6s.67-4.47 2.01-5.97c1.34-1.52 2.97-2.28001 4.89-2.28001 1.24 0 2.41.43001 3.51 1.29001.46.38.84.8 1.14 1.26h.3v-2.10001h5.1v15.60001h-5.1v-2.1h-.3c-.28.48-.66.91-1.14 1.29-1.08.84-2.25 1.26-3.51 1.26-1.92 0-3.55-.75-4.89-2.25zm4.14-8.88c-.6.68-.9 1.64-.9 2.88s.3 2.2.9 2.88 1.4 1.02 2.4 1.02 1.8-.34 2.4-1.02.9-1.64.9-2.88-.3-2.2-.9-2.88-1.4-1.02-2.4-1.02-1.8.34-2.4 1.02z"/><path d="m158.31 19.9h5.1c.08.3.25.58.51.84.54.54 1.32.81 2.34.81 1.4 0 2.1-.35 2.1-1.05 0-.32-.2-.57-.6-.75-.4-.2-1-.4-1.8-.6-.66-.16-1.09-.26-1.29-.3s-.62-.15-1.26-.33c-.64-.2-1.1-.37-1.38-.51-.26-.16-.63-.38-1.11-.66-.46-.3-.8-.6-1.02-.9-.2-.32-.39-.71-.57-1.17-.18-.48-.27-.99-.27-1.53 0-1.32.59-2.45 1.77-3.39 1.18-.94001 2.84-1.41001 4.98-1.41001 2.68 0 4.8.88 6.36 2.64001.62.76 1.05 1.63 1.29 2.61h-4.95c-.12-.32-.26-.57-.42-.75-.46-.5-1.12-.75-1.98-.75-1.2 0-1.8.35-1.8 1.05 0 .34.2.6.6.78s1.01.35 1.83.51c2.06.48 3.45.9 4.17 1.26 1.8.88 2.7 2.23 2.7 4.05 0 1.44-.64 2.65-1.92 3.63-1.26.98-3.07 1.47-5.43 1.47-2.9 0-5.11-.92-6.63-2.76-.68-.82-1.12-1.75-1.32-2.79z"/><path d="m174.951 19.9h5.1c.08.3.25.58.51.84.54.54 1.32.81 2.34.81 1.4 0 2.1-.35 2.1-1.05 0-.32-.2-.57-.6-.75-.4-.2-1-.4-1.8-.6-.66-.16-1.09-.26-1.29-.3s-.62-.15-1.26-.33c-.64-.2-1.1-.37-1.38-.51-.26-.16-.63-.38-1.11-.66-.46-.3-.8-.6-1.02-.9-.2-.32-.39-.71-.57-1.17-.18-.48-.27-.99-.27-1.53 0-1.32.59-2.45 1.77-3.39 1.18-.94001 2.84-1.41001 4.98-1.41001 2.68 0 4.8.88 6.36 2.64001.62.76 1.05 1.63 1.29 2.61h-4.95c-.12-.32-.26-.57-.42-.75-.46-.5-1.12-.75-1.98-.75-1.2 0-1.8.35-1.8 1.05 0 .34.2.6.6.78s1.01.35 1.83.51c2.06.48 3.45.9 4.17 1.26 1.8.88 2.7 2.23 2.7 4.05 0 1.44-.64 2.65-1.92 3.63-1.26.98-3.07 1.47-5.43 1.47-2.9 0-5.11-.92-6.63-2.76-.68-.82-1.12-1.75-1.32-2.79z"/></g><path clip-rule="evenodd" d="m6 6v18h18zm-6-6v30h30v-30z" fill="#ff6e30" fill-rule="evenodd"/></svg>
